icons/svg/google-nearby.svg

﻿<?xml version="1.0" encoding="utf-8"?>
<!DOCTYPE svg PUBLIC "-//W3C//DTD SVG 1.1//EN" "http://www.w3.org/Graphics/SVG/1.1/DTD/svg11.dtd">
<svg xmlns="http://www.w3.org/2000/svg" xmlns:xlink="http://www.w3.org/1999/xlink" version="1.1" baseProfile="full" width="24" height="24" viewBox="0 0 24.00 24.00" enable-background="new 0 0 24.00 24.00" xml:space="preserve">
	<path fill="#000000" fill-opacity="1" stroke-width="1.33333" stroke-linejoin="miter" d="M 4.19922,3C 3.57378,3.0005 3.05358,3.482 3.00391,4.1055C 2.99364,8.6637 3,13.2369 3,17.8008C 3.00086,18.4629 3.53709,19 4.19922,19C 4.3124,18.9997 4.42459,18.983 4.5332,18.9512C 8.49161,16.8363 12.5622,14.3798 16.5195,12.084C 16.9391,11.8858 17.2068,11.464 17.207,11C 17.207,10.568 16.9753,10.1702 16.5996,9.957C 12.5034,7.5633 8.21087,5.0698 4.53125,3.0469C 4.42356,3.0159 4.31128,3.0001 4.19922,3 Z M 19.873,6C 19.761,6.0001 19.6507,6.0159 19.543,6.0469C 18.5973,6.5668 17.5344,7.1797 16.5215,7.752C 16.8549,7.9466 17.1922,8.1404 17.5234,8.334C 18.4785,8.8771 19.0743,9.9009 19.0742,11L 19.0742,11.002C 19.0736,12.1838 18.3841,13.2692 17.3164,13.7735C 15.923,14.5939 12.9161,16.3577 11.3184,17.2852C 14.0656,18.8948 16.8245,20.5009 19.5391,21.9512C 19.6477,21.9831 19.7598,21.9997 19.873,22C 20.5352,22 21.0734,21.463 21.0742,20.8008C 21.0742,16.237 21.0786,11.6638 21.0683,7.1055C 21.0187,6.482 20.4985,6.0005 19.873,6 Z "/>
</svg>

<svg xmlns="http://www.w3.org/2000/svg" version="1.1" baseProfile="full" width="24" height="24" viewBox="0 0 24.00 24.00" xml:space="preserve"><path fill="#000" fill-opacity="1" stroke-width="1.333" stroke-linejoin="miter" d="M4.2 3c-.626 0-1.146.482-1.196 1.106C2.994 8.663 3 13.236 3 17.8c0 .663.537 1.2 1.2 1.2.112 0 .225-.017.333-.05 3.96-2.114 8.03-4.57 11.986-6.866.42-.198.687-.62.687-1.084 0-.432-.232-.83-.607-1.043-4.097-2.394-8.39-4.887-12.07-6.91C4.425 3.017 4.31 3 4.2 3zm15.673 3c-.112 0-.222.016-.33.047-.946.52-2.01 1.133-3.02 1.705.332.195.67.388 1 .582.956.543 1.55 1.567 1.55 2.666v.002c0 1.182-.69 2.267-1.757 2.77-1.393.822-4.4 2.586-5.998 3.513 2.748 1.61 5.507 3.216 8.22 4.666.11.033.222.05.335.05.662 0 1.2-.537 1.2-1.2 0-4.563.006-9.136-.005-13.695-.05-.623-.57-1.105-1.195-1.105z"/></svg>
